packages/kaspersky-hexa-ui-icons/src/iconsSVGs/48/CardSafeMoney.svg

<svg xmlns="http://www.w3.org/2000/svg" width="48" height="48" fill="none" viewBox="0 0 48 48"><path fill="currentColor" fill-rule="evenodd" d="M16 31H6v-2h10zm8 2H6v2h18zm24-23v28c0 1.6569-1.3431 3-3 3H3c-1.6568 0-3-1.3431-3-3V10c0-1.6569 1.3432-3 3-3h42c1.6569 0 3 1.3431 3 3m-3.91 5h-2.18l-3 3h2.18zm-.18 3H46v-2.09zm-4.82-3h-2.18l-3 3h2.18zm-5 0h-2.18l-3 3h2.18zm-5 0h-2.18l-3 3h2.18zm-5 0h-2.18l-3 3h2.18zm-5 0h-2.18l-3 3h2.18zm-5 0h-2.18l-3 3h2.18zm-5 0H6.91l-3 3h2.18zm-5 0H2v2.09zM46 20H2v18c0 .5523.4477 1 1 1h42c.5523 0 1-.4477 1-1zm0-7v-3c0-.5523-.4477-1-1-1H3c-.5523 0-1 .4477-1 1v3z" clip-rule="evenodd"/></svg>

<svg width="48" height="48" viewBox="0 0 48 48" fill="none" xmlns="http://www.w3.org/2000/svg">
<path fill-rule="evenodd" clip-rule="evenodd" d="M16 31H6V29H16V31ZM24 33H6V35H24V33ZM48 10V38C48 39.6569 46.6569 41 45 41H3C1.34315 41 0 39.6569 0 38V10C0 8.34315 1.34315 7 3 7H45C46.6569 7 48 8.34315 48 10ZM44.09 15H41.91L38.91 18H41.09L44.09 15ZM43.91 18H46V15.91L43.91 18ZM39.09 15H36.91L33.91 18H36.09L39.09 15ZM34.09 15H31.91L28.91 18H31.09L34.09 15ZM29.09 15H26.91L23.91 18H26.09L29.09 15ZM24.09 15H21.91L18.91 18H21.09L24.09 15ZM19.09 15H16.91L13.91 18H16.09L19.09 15ZM14.09 15H11.91L8.91 18H11.09L14.09 15ZM9.09 15H6.91L3.91 18H6.09L9.09 15ZM4.09 15H2V17.09L4.09 15ZM46 20H2V38C2 38.5523 2.44772 39 3 39H45C45.5523 39 46 38.5523 46 38V20ZM46 13V10C46 9.44772 45.5523 9 45 9H3C2.44772 9 2 9.44772 2 10V13H46Z"  fill="currentColor"/>
</svg>
